X: 708
T: Agnes
R: waltz
M: 3/4
K: Gmajor
B,2 C2 ^C2|D2 E3 D|B6|B6|B,2 C2 ^C2|D2 E3 D|(F6-|F6)|
C2 D2 E2|F2 E3 D|c6|c6|C2 D2 E2|F2 E3 D|B6|D2 _D2 C2||
B,2 C2 ^C2|D2 E3 D|B6|B6|B2 _B2 =B2|d2 c3 A|E6|E6|
G6|F4 E2|D2 G2 B2|d2 c2 A2|E6|F6|(G6-|G6)||
B3 B B2|B2 ^A2 B2|d6|B6|A3 A A2|A2 ^G2 A2|B6|B6|
B3 B B2|e4 B2|B6|A2 _A2 =A2|e6|(d6-|d6)||
B3 B B2|B2 ^A2 B2|d6|B6|A3 A A2|A2 ^G2 A2|B6|B2 c2 d2|
e6|f4 e2|d2 c2 A2|E2 G2 c2|B6|A6|(G6-|G6)||
B6|B6|dd d2 c2|A6|c6|c6|ee e2 d2|B6|
g6|g2 f2 e2|g6|B6|A2 ^G2 A2|A2 f2 e2|d6|c6||
B6|B6|d2 d2 c2|A6|c6|c6|ee e2 d2|B6|
g6|G2 B2 f2|e4 d2|E2 G2 c2|B6|A6|G6|G4 D2||
|:G2 GDGB|d2 B2 d2|e2 eceg|d4 B2|A2 A^GAd|f4 e2|d^ce d^cd|B4 D2|
G2 GDGB|d2 B2 d2|e2 eceg|d4 g2|f2 e2 d2|c2 E2 F2|G6|G4 D2:|
B,2 C2 ^C2|D2 E3 D|B6|B6|B,2 C2 ^C2|D2 E3 D|(F6-|F6)|
C2 D2 E2|F2 E3 D|(c6-|c6)|C2 D2 E2|F2 E3 D|B6|D2 _D2 C2||
B,2 C2 ^C2|D2 E3 D|B6|B6|B2 _B2 =B2|d2 c3 A|(E6-|E6)|
G6|F4 E2|D2 G2 B2|d2 c2 A2|E6|F6|G6|G2 z4||

